shader_type canvas_item;

void vertex() {
}

void fragment() {
	COLOR.rgb = vec3(0.0, 0.0, 0.0);
	COLOR.a = 1.0;
}

//void light() {
	// Called for every pixel for every light affecting the CanvasItem.
	// Uncomment to replace the default light processing function with this one.
//}
